templates/main/source/images/Fill_1.svg

<?xml version="1.0" encoding="utf-8"?>
<svg width="22px" height="22px" viewBox="0 0 22 22" version="1.1" xmlns:xlink="http://www.w3.org/1999/xlink" xmlns="http://www.w3.org/2000/svg">
  <desc>Created with Lunacy</desc>
  <g id="musica-searcher-(1)">
    <path d="M0 0L22 0L22 22L0 22L0 0Z" id="Rectangle-5" fill="none" stroke="none" />
    <path d="M16.4274 13.1537L16.344 12.9035C16.1506 12.3269 15.5144 11.7246 14.9259 11.5642L12.7589 10.9711C12.1704 10.8116 11.3326 11.0271 10.9027 11.4579L10.1171 12.2416C7.26811 11.4707 5.03144 9.23497 4.26236 6.38414L5.04519 5.59947C5.47603 5.17047 5.69053 4.33264 5.53103 3.74322L4.94069 1.57531C4.78028 0.98864 4.17619 0.35064 3.59961 0.157223L3.35211 0.0747234C2.77278 -0.118693 1.94869 0.0765567 1.51878 0.508307L0.344527 1.68256C0.134611 1.88972 0.000777276 2.48647 0.000777276 2.48831C-0.0386394 6.21639 1.42253 9.80606 4.05794 12.4433C6.68603 15.0705 10.2619 16.5307 13.9781 16.4977C13.9983 16.4977 14.6124 16.3666 14.8214 16.1576L15.9948 14.9834C16.4256 14.5553 16.619 13.7294 16.4274 13.1537" transform="translate(2.75 2.75)" id="Fill-1" fill="#4B4B4B" stroke="none" />
  </g>
</svg>

<svg width="22" height="22" viewBox="0 0 22 22" xmlns:xlink="http://www.w3.org/1999/xlink" xmlns="http://www.w3.org/2000/svg"><g id="musica-searcher-(1)" stroke="none"><path d="M0 0h22v22H0V0z" id="Rectangle-5" fill="none"/><path d="M16.427 13.154l-.083-.25c-.193-.577-.83-1.18-1.418-1.34l-2.167-.593c-.589-.16-1.426.056-1.856.487l-.786.784a8.324 8.324 0 01-5.855-5.858l.783-.785c.431-.429.646-1.266.486-1.856l-.59-2.168C4.78.99 4.176.351 3.6.157L3.352.075C2.772-.12 1.95.077 1.52.508L.345 1.683C.135 1.89 0 2.486 0 2.488a13.877 13.877 0 004.057 9.955 13.859 13.859 0 009.92 4.055c.02 0 .634-.131.843-.34l1.174-1.175c.43-.428.624-1.254.432-1.83" transform="translate(2.75 2.75)" id="Fill-1" fill="#4B4B4B"/></g></svg>
